X:1
T:Title
%%score ( 1 2 ) { 3 | 4 }
L:1/8
Q:1/4=105
M:4/4
K:Eb
V:1 treble nm="Grand Piano, Soprano"
V:2 treble 
V:3 bass nm="Choir Pad, The Waiting Savior"
V:4 bass 
V:1
 E3 [EF] [EG]E [EG]>[FA] | [GB]4 [EG]2 z2 | [EF]2 [EG]2 [EA]2 [DA]2 | [EG]6 z2 | %4
w: By~Hart~Pease~Danks * * * * *||||
 [F=A]3 [FA] [FG]F[FG][FA] | [FB]4 F4 | [Fc]3 [Fc] [Fc][F=B][Fc][F_d] | [Fd]2 [FB]2 [GB]2 [EG]2 | %8
w: ||||
 [DF]4 [Ec]4 | [DB]6 B>B | B2 B,>B, B,B, c>B | z2[K:bass] E4 z2[K:treble] | %12
w: ||||
 [B,D]2 [B,D]2 [B,E]2 [EG]2 | [DF]6 [DG]>[DF] | E2 E2 [EF]2 [DF]2 | G2 Ac [EB]2 EF | %16
w: ||||
 [EG]2 [EA]2 [DF]3 E | E8 |] %18
w: ||
V:2
 x8 | x8 | x8 | x8 | x8 | x8 | x8 | x8 | x8 | x8 | z2 D4 z2 | %11
 B2[K:bass] B,>B, B,B, [B,E]>[K:treble][B,E] | x8 | x8 | x8 | E4 z4 | x8 | x8 |] %18
V:3
 G,3 A, B,G, B,>B, | E4 B,2 z2 | C2 C2 C2 B,2 | B,6 z2 | C3 C B,=A,B,C | B,4 B,4 | %6
 =A,3 A, A,A,A,A, | B,2 B,2 B,2 B,2 | B,4 =A,4 | B,6 z2 | z2 A,>A, A,A, z2 | z2 G,>G, G,G, G,>G, | %12
 A,2 A,2 G,2 B,2 | B,2 B,>B, B,2 B,>A, | G,2 G,2 B,2 B,2 | B,2 A,2 G,2 =A,2 | B,2 C2 A,3 G, | %17
 G,8 |] %18
V:4
 E,3 E, E,E, E,>E, | E,4 E,2 z2 | A,2 G,2 F,2 B,,2 | E,6 z2 | E,3 E, E,E,E,E, | D,4 D,4 | %6
 F,3 F, F,F,F,F, | z2 D,2 E,2 E,2 | F,4 F,4 | B,,6 z2 | z2 F,>F, F,F, z2 | z2 E,>E, E,E, E,>E, | %12
 F,2 F,2 E,2 E,2 | B,,2 B,,>B,, B,,2 B,,>B,, | E,2 C,2 B,,2 B,,2 | E,_D,C,A,, E,2 C,2 | %16
 B,,2 B,,2 B,,3 E, | E,8 |] %18

